!!!!SEGMENT: pl-kk--kk-i-10--022-005_anonim--missa-alia-paschalis-benedictus.krn
!!!cenid: 16xx:1226
!!!COM: Anonim
!!!COM-rismid: pe30004985
!!!CDT:
!!!CNT:
!!!OPR: Missa alia Paschalis
!!!OTL: Benedictus
!!!OMV: 005
!!!PDT:
!!!AGN: Sacred; Mass
!!!SMS-siglum: PL-Kk
!!!SMS-shelfmark: Kk.I.10
!!!SMS-shelfwork: 022-005 M
!!!SMS-variant:
!!!SMS-altvar:
!!!NIFC-rismid: 1001154103
!!!URL-scan: http://repozytorium.nifc.pl/skany/pl-kk-nut--i-10
!!!ONB-nifc: UWAGA: części Mszy: 1. Kyrie, 2. Et in terra, 3. Patrem, 4. Sanctus, 5. Benedictus, 6. Agnus Dei. A (0038-0041), T (0087-0090), B (0136-0139)
**kern	**text	**kern	**text	**kern	**text
*part3	*part3	*part2	*part2	*part1	*part1
*staff3	*staff3	*staff2	*staff2	*staff1	*staff1
*Iempty	*	*Itenor	*	*Ialto	*
*I"[Baſsus]	*	*I"[Tenor]	*	*I"[Alt(us)]	*
*I'B	*	*I'T	*	*I'A	*
*clefF4	*	*clefC4	*	*clefC3	*
*k[b-]	*	*k[b-]	*	*k[b-]	*
*g:	*	*g:	*	*g:	*
*M3/1	*	*M3/1	*	*M3/1	*
=1-	=1-	=1-	=1-	=1-	=1-
1r	.	1rF	.	1r	.
1G	Be-	1B-	Be-	1d	Be-
1G	-ne-	1B-	-ne-	1d	-ne-
=2-	=2-	=2-	=2-	=2-	=2-
0G	-dic-	0G	-dic-	0d	-dic-
1F	-t(us)	1A	-t(us)	1d	-t(us)
=3-	=3-	=3-	=3-	=3-	=3-
1G	qui	1G	qui	1d	qui
!	!	!	!	!LO:SIC:v:s=2e-	!
0E-X	ve-	0c	Ve-	2e\	ve-
.	.	.	.	2f\	.
.	.	.	.	1g	.
=4-	=4-	=4-	=4-	=4-	=4-
1D	-nit	1A	-nit	1f	-nit
*	*ij	*	*ij	*	*
1D	Be-	1A	Be-	1f	be-
1D	-ne-	1A	-ne-	1f	-ne-
=5-	=5-	=5-	=5-	=5-	=5-
1G	-dic-	1B-	-dic-	1.d	-dic-
1G	-t(us)	1B-	-t(us)	.	.
.	.	.	.	2c/	.
1G	qui	1G	qui	2d/	-t(us)
.	.	.	.	2e\	qui
=6-	=6-	=6-	=6-	=6-	=6-
0F	ve-	0A	Ve-	0f	ve-
1F	-nit	1A	-nit	1f	-nit
=7-	=7-	=7-	=7-	=7-	=7-
0F	Be-	1r	.	1re	.
*	*	*	*	*	*ij
.	.	1A	Be-	(2f\	be-
.	.	.	.	2g\)	.
1D	-ne-	1A	-ne-	(2f\	-ne-
.	.	.	.	2g\)	.
=8-	=8-	=8-	=8-	=8-	=8-
0AA	-dic-	0A	-dic-	0a	-dic-
1AA	-t(us)	1A	-t(us)	1a	-t(us)
=9-	=9-	=9-	=9-	=9-	=9-
1BB-	qui	0B-	qui	1f	qui
0GG	ve-	.	.	0g	ve-
.	.	1B-	Ve-	.	.
=10-	=10-	=10-	=10-	=10-	=10-
0FF	-nit	0c	-nit	0a	-nit
*	*Xij	*	*Xij	*	*Xij
!LO:TX:t=P:problem:kreska pseudotaktowa	!	!	!	!	!
1F	in	1c	In	1a	in
=11	=11-	=11-	=11-	=11-	=11-
2BB-/	No-	1.B-	no-	0f	no-
2C/	.	.	.	.	.
2D/	.	.	.	.	.
2E\	-mi-	2B-\	-mi-	.	.
1F	-ne	1A	-ne	1f	-mi-
=12-	=12-	=12-	=12-	=12-	=12-
1G	D(o-	1G	Do-	1d	-ne
1.D	.	1.A	.	1.d	Do-
2D/	-mi)-	2A/	-mi-	2d\	-mi-
=13-	=13-	=13-	=13-	=13-	=13-
1GG	-ni	1G	-ni	1d	-ni
*	*ij	*	*	*	*ij
1BB-	in	(2F/	in	0f	in
.	.	2G/)	.	.	.
1F	No-	1A	no-	.	.
=14-	=14-	=14-	=14-	=14-	=14-
1.G	.	1.B-	.	1.d	no-
2G\	-mi-	2d\	-mi-	2d\	-mi-
1D	-ne	1d	-ne	1d	-ne
=15-	=15-	=15-	=15-	=15-	=15-
1BB-	D(o-	1d	Do-	1d	Do-
1C	.	1c	.	1e-X	.
1D	-mi)-	1A	-mi-	1d	-mi-
=16-	=16-	=16-	=16-	=16-	=16-
0GG	-ni	0B-	-ni	0d	-ni
*	*Xij	*	*	*	*Xij
1GG	o-	1r	.	1B-	O-
=17-	=17-	=17-	=17-	=17-	=17-
1GG	-ſan-	1%3r	.	1.d	-ſan-
1.GG	-na	.	.	.	.
.	.	.	.	2B-/	-na
.	.	.	.	2c/	in
*	*ij	*	*	*	*
2GG/	o-	.	.	2d/	ex-
=18-	=18-	=18-	=18-	=18-	=18-
1C	-ſan-	1r	.	1e-X	-cel-
1.C	-na	1r	.	1e-	-ſis
*	*	*	*	*	*ij
.	.	1c	O-	1e-	O-
2C/	o-	.	.	.	.
=19-	=19-	=19-	=19-	=19-	=19-
1.F	-ſan-	1.A	-ſan-	1.c	-ſan-
2F\	-na	2F/	-na	2A/	-na
2F\	in	2G/	in	2B-/	in
2F\	ex-	2A/	ex-	2c/	ex-
=20-	=20-	=20-	=20-	=20-	=20-
1BB-	-cel-	1B-	-cel-	1.d	-cel-
1BB-	-ſis	1B-	-ſis	.	.
*	*Xij	*	*	*	*
.	.	.	.	2d\	-ſis
*	*	*	*	*	*Xij
1E-X	in	1r	.	1B-	in
=21-	=21-	=21-	=21-	=21-	=21-
1C	ex-	1%3r	.	1c	ex-
0D	-cel-	.	.	0A	-cel-
=22-	=22-	=22-	=22-	=22-	=22-
0GG	-ſis	1r	.	0G	-ſis
.	.	1r	.	.	.
1G	o-	1B-	o-	1d	o-
=23-	=23-	=23-	=23-	=23-	=23-
1D	-ſan-	1A	-ſan-	1d	-ſan-
1.D	-na	1.A	-na	1.d	-na
*	*ij	*	*ij	*	*
2D/	o-	2A/	o-	2d\	o-
=24-	=24-	=24-	=24-	=24-	=24-
1G	-ſan-	1B-	-ſan-	1d	-ſan-
1.G	-na	1.B-	-na	1.d	-na
2G\	o-	2B-\	o-	2d\	o-
=25-	=25-	=25-	=25-	=25-	=25-
0F	-ſan-	0c	-ſan-	0f	-ſan-
1F	-na	1c	-na	1f	-na
*	*Xij	*	*Xij	*	*
=26-	=26-	=26-	=26-	=26-	=26-
0D	in	0d	in	1.f	in
.	.	.	.	2e\	.
1D	ex-	1d	ex-	2d\	.
.	.	.	.	2e\	.
=27-	=27-	=27-	=27-	=27-	=27-
2BB-/	-cel-	1.d	-cel-	1.f	ex-
2C/	.	.	.	.	.
2D\	.	.	.	.	.
2E\	.	2d\	-ſis	2g\	.
1F	-ſis	1c	in	2a\	-cel-
.	.	.	.	2f\	-ſis
=28-	=28-	=28-	=28-	=28-	=28-
*	*ij	*	*	*	*
1G	in	1B-	ex-	1d	in
1C	ex-	0A	-cel-	1e-X	ex-
1D	-cel-	.	.	1d	-cel-
=29-	=29-	=29-	=29-	=29-	=29-
0.GG	-ſis	0.B-	-ſis	0.d	-ſis
=30-	=30-	=30-	=30-	=30-	=30-
*M2/1	*	*M2/1	*	*M2/1	*
*met(c)	*	*met(c|)	*	*met(c|)	*
2C/	in	2c\	in	2e-X\	in
2BB-/	ex-	2d\	ex-	2d\	ex-
1C	-cel	1c	-cel-	1e-	-cel-
*	*Xij	*	*	*	*
=31-	=31-	=31-	=31-	=31-	=31-
!LO:TX:t=P:problem:dźwięk nieczytelny [defekt źródła]	!	!LO:TX:t=P:problem:fermata above/below	!	!LO:TX:t=P:problem:fermata above/below	!
0ryy	.	0B-;;	-ſis	0d;;	-ſis
==	==	==	==	==	==
*-	*-	*-	*-	*-	*-
!!!system-decoration: [(s1,s2,s3)]
!!!AIN: 1 alto 1 empty 1 tenor
!!!ENC: Kamil Watkowski
!!!END: 2021-07-08
